Sources/FrostedUI/Resources/Icons.xcassets/ethereum16.imageset/ethereum-16.svg

<svg width="16" height="16" viewBox="0 0 16 16" fill="none" xmlns="http://www.w3.org/2000/svg" data-fui-icon="true">
  <path
    d="M12.3495 8.23047C12.6586 8.06349 13.0421 8.13404 13.2723 8.39941C13.4738 8.63173 13.511 8.95911 13.3768 9.22656L13.3094 9.33691L8.60242 15.6963C8.46097 15.8872 8.23752 16 7.99988 16C7.76223 16 7.53876 15.8873 7.39734 15.6963L2.69128 9.33691C2.48233 9.05454 2.49736 8.66484 2.72742 8.39941C2.95763 8.13407 3.34119 8.06358 3.65027 8.23047L7.99988 10.5811L12.3495 8.23047ZM8.35632 12.0947C8.134 12.2147 7.86573 12.2147 7.64343 12.0947L5.90027 11.1523L7.99988 13.9893L10.0985 11.1523L8.35632 12.0947ZM7.99988 0C8.23234 2.77214e-09 8.45163 0.107955 8.59363 0.291992L13.2997 6.39746C13.4373 6.57599 13.4878 6.80691 13.4364 7.02637C13.3913 7.2185 13.2721 7.38382 13.1073 7.48828L13.0341 7.5293L8.328 9.81934C8.12094 9.92 7.8788 9.92004 7.67175 9.81934L2.9657 7.5293L2.89246 7.48828C2.7277 7.38382 2.60846 7.21844 2.56335 7.02637C2.51197 6.80695 2.5625 6.57597 2.70007 6.39746L7.40613 0.291992C7.5481 0.107918 7.76741 3.52323e-05 7.99988 0ZM4.4491 6.58398L7.99988 8.31055L11.5497 6.58398L7.99988 1.97852L4.4491 6.58398Z"
    fill="currentColor"
  />
</svg>

<svg xmlns="http://www.w3.org/2000/svg" width="16" height="16" fill="none" data-fui-icon="true" viewBox="0 0 16 16"><path fill="currentColor" d="M12.35 8.23a.75.75 0 0 1 1.027.997l-.068.11-4.707 6.36a.75.75 0 0 1-1.205 0l-4.706-6.36a.75.75 0 0 1 .96-1.107L8 10.581zm-3.994 3.865a.75.75 0 0 1-.713 0L5.9 11.152 8 13.99l2.098-2.837zM8 0a.75.75 0 0 1 .594.292L13.3 6.397a.75.75 0 0 1-.193 1.091l-.073.041-4.706 2.29a.75.75 0 0 1-.656 0L2.966 7.53l-.074-.04A.75.75 0 0 1 2.7 6.396L7.406.292A.75.75 0 0 1 8 0M4.45 6.584 8 8.311l3.55-1.727L8 1.979z"/></svg>
